newicons/emoji_school.svg

<?xml version="1.0" encoding="UTF-8" standalone="no"?>
<svg
   version="1.2"
   viewBox="0 0 48 48"
   id="svg27"
   xmlns="http://www.w3.org/2000/svg"
   xmlns:svg="http://www.w3.org/2000/svg">
  <defs
     id="defs1" />
  <path
     d="m 7.1149258,34.991258 h 9.3084312 c 0.891921,0 1.614926,0.722819 1.614926,1.614513 v 2.015381 H 5.5000001 v -2.015381 c 0,-0.891694 0.7230044,-1.614513 1.6149257,-1.614513"
     fill="none"
     stroke="#ffffff"
     stroke-linecap="round"
     stroke-linejoin="round"
     stroke-width="1"
     id="path1"
     style="stroke-width:1;stroke-dasharray:none" />
  <path
     d="m 31.576644,34.991258 h 9.308431 c 0.891922,0 1.614925,0.722819 1.614925,1.614513 v 2.015381 H 29.961718 v -2.015381 c 0,-0.891694 0.723005,-1.614513 1.614926,-1.614513 v 0"
     fill="none"
     stroke="#ffffff"
     stroke-linecap="round"
     stroke-linejoin="round"
     stroke-width="1"
     id="path2"
     style="stroke-width:1;stroke-dasharray:none" />
  <path
     d="M 6.8874977,34.991258 V 17.46938 H 18.038218"
     fill="none"
     stroke="#ffffff"
     stroke-linecap="round"
     stroke-linejoin="round"
     stroke-width="1"
     id="path3"
     style="stroke-width:1;stroke-dasharray:none" />
  <path
     d="M 29.961718,17.46938 H 41.112439 V 34.991258"
     fill="none"
     stroke="#ffffff"
     stroke-linecap="round"
     stroke-linejoin="round"
     stroke-width="1"
     id="path4"
     style="stroke-width:1;stroke-dasharray:none" />
  <path
     d="M 15.288207,29.289477 H 14.043615 V 26.178919"
     fill="none"
     stroke="#ffffff"
     stroke-linecap="round"
     stroke-linejoin="round"
     stroke-width="1"
     id="path5"
     style="stroke-width:1;stroke-dasharray:none" />
  <path
     d="M 10.932262,29.289477 H 9.6877342 v -3.110558"
     fill="none"
     stroke="#ffffff"
     stroke-linecap="round"
     stroke-linejoin="round"
     stroke-width="1"
     id="path6"
     style="stroke-width:1;stroke-dasharray:none" />
  <path
     d="M 15.288207,23.068359 H 14.043615 V 19.957801"
     fill="none"
     stroke="#ffffff"
     stroke-linecap="round"
     stroke-linejoin="round"
     stroke-width="1"
     id="path7"
     style="stroke-width:1;stroke-dasharray:none" />
  <path
     d="M 10.932262,23.068359 H 9.6877342 v -3.110558"
     fill="none"
     stroke="#ffffff"
     stroke-linecap="round"
     stroke-linejoin="round"
     stroke-width="1"
     id="path8"
     style="stroke-width:1;stroke-dasharray:none" />
  <path
     d="M 38.312203,29.289477 H 37.067674 V 26.178919"
     fill="none"
     stroke="#ffffff"
     stroke-linecap="round"
     stroke-linejoin="round"
     stroke-width="1"
     id="path9"
     style="stroke-width:1;stroke-dasharray:none" />
  <path
     d="M 33.956321,29.289477 H 32.71173 v -3.110558"
     fill="none"
     stroke="#ffffff"
     stroke-linecap="round"
     stroke-linejoin="round"
     stroke-width="1"
     id="path10"
     style="stroke-width:1;stroke-dasharray:none" />
  <path
     d="M 38.312203,23.068359 H 37.067674 V 19.957801"
     fill="none"
     stroke="#ffffff"
     stroke-linecap="round"
     stroke-linejoin="round"
     stroke-width="1"
     id="path11"
     style="stroke-width:1;stroke-dasharray:none" />
  <path
     d="M 33.956321,23.068359 H 32.71173 v -3.110558"
     fill="none"
     stroke="#ffffff"
     stroke-linecap="round"
     stroke-linejoin="round"
     stroke-width="1"
     id="path12"
     style="stroke-width:1;stroke-dasharray:none" />
  <path
     d="m 16.806535,15.495287 h 1.23316 v 1.971268 H 6.8898741 l 2.4727427,-3.942537 h 9.7629662 l -2.319048,1.971269 v 0"
     fill="none"
     stroke="#ffffff"
     stroke-linecap="round"
     stroke-linejoin="round"
     stroke-width="1"
     id="path13"
     style="stroke-width:1;stroke-dasharray:none" />
  <path
     d="m 31.193401,15.495287 h -1.230784 v 1.971268 h 11.149822 l -2.472807,-3.942537 h -9.763544 l 2.317313,1.971269 v 0"
     fill="none"
     stroke="#ffffff"
     stroke-linecap="round"
     stroke-linejoin="round"
     stroke-width="1"
     id="path14"
     style="stroke-width:1;stroke-dasharray:none" />
  <path
     d="M 31.193401,15.495287 H 16.806535 l 1.23316,-1.047213 5.960273,-5.0720662 7.193433,6.1192792 v 0"
     fill="none"
     stroke="#ffffff"
     stroke-linecap="round"
     stroke-linejoin="round"
     stroke-width="1"
     id="path15"
     style="stroke-width:1;stroke-dasharray:none" />
  <path
     d="m 18.038218,36.20394 h 11.9235"
     fill="none"
     stroke="#ffffff"
     stroke-linecap="round"
     stroke-linejoin="round"
     stroke-width="1"
     id="path16"
     style="stroke-width:1;stroke-dasharray:none" />
  <path
     d="M 41.112439,38.621152 H 6.8874977"
     fill="none"
     stroke="#ffffff"
     stroke-linecap="round"
     stroke-linejoin="round"
     stroke-width="1"
     id="path17"
     style="stroke-width:1;stroke-dasharray:none" />
  <path
     d="M 23.999968,36.20394 V 28.019325"
     fill="none"
     stroke="#ffffff"
     stroke-linecap="round"
     stroke-linejoin="round"
     stroke-width="1"
     id="path18"
     style="stroke-width:1;stroke-dasharray:none" />
  <path
     d="M 23.999968,22.068343 V 19.386262"
     fill="none"
     stroke="#ffffff"
     stroke-linecap="round"
     stroke-linejoin="round"
     stroke-width="1"
     id="path19"
     style="stroke-width:1;stroke-dasharray:none" />
  <path
     d="m 23.999968,22.068343 1.341383,-0.670489"
     fill="none"
     stroke="#ffffff"
     stroke-linecap="round"
     stroke-linejoin="round"
     stroke-width="1"
     id="path20"
     style="stroke-width:1;stroke-dasharray:none" />
  <path
     d="M 14.043615,34.991258 V 32.400035"
     fill="none"
     stroke="#ffffff"
     stroke-linecap="round"
     stroke-linejoin="round"
     stroke-width="1"
     id="path21"
     style="stroke-width:1;stroke-dasharray:none" />
  <path
     d="M 9.6877342,34.991258 V 32.400035"
     fill="none"
     stroke="#ffffff"
     stroke-linecap="round"
     stroke-linejoin="round"
     stroke-width="1"
     id="path22"
     style="stroke-width:1;stroke-dasharray:none" />
  <path
     d="M 37.067674,34.991258 V 32.400035"
     fill="none"
     stroke="#ffffff"
     stroke-linecap="round"
     stroke-linejoin="round"
     stroke-width="1"
     id="path23"
     style="stroke-width:1;stroke-dasharray:none" />
  <path
     d="M 32.71173,34.991258 V 32.400035"
     fill="none"
     stroke="#ffffff"
     stroke-linecap="round"
     stroke-linejoin="round"
     stroke-width="1"
     id="path24"
     style="stroke-width:1;stroke-dasharray:none" />
  <path
     d="m 19.955204,21.757305 a 4.0447645,4.0437325 0 1 0 8.089529,0 4.0447645,4.0437325 0 1 0 -8.089529,0"
     fill="none"
     stroke="#ffffff"
     stroke-linecap="round"
     stroke-linejoin="round"
     stroke-width="1"
     id="path25"
     style="stroke-width:1;stroke-dasharray:none" />
  <path
     d="m 18.039695,15.495287 h 11.92061 v 23.12869 h -11.92061 v -23.12869"
     fill="none"
     stroke="#ffffff"
     stroke-linecap="round"
     stroke-linejoin="round"
     stroke-width="1"
     id="path26"
     style="stroke-width:1;stroke-dasharray:none" />
  <path
     d="m 20.54757,28.019325 h 6.904861 V 36.20394 H 20.54757 v -8.184615"
     fill="none"
     stroke="#ffffff"
     stroke-linecap="round"
     stroke-linejoin="round"
     stroke-width="1"
     id="path27"
     style="stroke-width:1;stroke-dasharray:none" />
</svg>

<?xml version="1.0" encoding="UTF-8"?><svg id="a" xmlns="http://www.w3.org/2000/svg" viewBox="0 0 48 48"><defs><style>.ac{fill:none;stroke:#fff;stroke-linecap:round;stroke-linejoin:round;}</style></defs><path id="b" class="ac" d="M7.1149,34.9913h9.3084c.8919,0,1.6149.7228,1.6149,1.6145v2.0154H5.5v-2.0154c0-.8917.723-1.6145,1.6149-1.6145"/><path id="c" class="ac" d="M31.5766,34.9913h9.3084c.8919,0,1.6149.7228,1.6149,1.6145v2.0154h-12.5383v-2.0154c0-.8917.723-1.6145,1.6149-1.6145h0"/><path id="d" class="ac" d="M6.8875,34.9913v-17.5219h11.1507"/><path id="e" class="ac" d="M29.9617,17.4694h11.1507v17.5219"/><path id="f" class="ac" d="M15.2882,29.2895h-1.2446v-3.1106"/><path id="g" class="ac" d="M10.9323,29.2895h-1.2445v-3.1106"/><path id="h" class="ac" d="M15.2882,23.0684h-1.2446v-3.1106"/><path id="i" class="ac" d="M10.9323,23.0684h-1.2445v-3.1106"/><path id="j" class="ac" d="M38.3122,29.2895h-1.2445v-3.1106"/><path id="k" class="ac" d="M33.9563,29.2895h-1.2446v-3.1106"/><path id="l" class="ac" d="M38.3122,23.0684h-1.2445v-3.1106"/><path id="m" class="ac" d="M33.9563,23.0684h-1.2446v-3.1106"/><path id="n" class="ac" d="M16.8065,15.4953h1.2332v1.9713H6.8899l2.4727-3.9425h9.763l-2.319,1.9713h0"/><path id="o" class="ac" d="M31.1934,15.4953h-1.2308v1.9713h11.1498l-2.4728-3.9425h-9.7635l2.3173,1.9713h0"/><path id="p" class="ac" d="M31.1934,15.4953h-14.3869l1.2332-1.0472,5.9603-5.0721,7.1934,6.1193h0"/><path id="q" class="ac" d="M18.0382,36.2039h11.9235"/><path id="r" class="ac" d="M41.1124,38.6212H6.8875"/><path id="s" class="ac" d="M24,36.2039v-8.1846"/><path id="t" class="ac" d="M24,22.0683v-2.6821"/><path id="u" class="ac" d="M24,22.0683l1.3414-.6705"/><path id="v" class="ac" d="M14.0436,34.9913v-2.5912"/><path id="w" class="ac" d="M9.6877,34.9913v-2.5912"/><path id="x" class="ac" d="M37.0677,34.9913v-2.5912"/><path id="y" class="ac" d="M32.7117,34.9913v-2.5912"/><path id="z" class="ac" d="M19.9552,21.7573c-.0005,2.2333,1.81,4.0441,4.0439,4.0446,2.2339.0005,4.0452-1.8096,4.0456-4.0429v-.0017c.0005-2.2333-1.81-4.0441-4.0439-4.0446-2.2339-.0005-4.0452,1.8096-4.0456,4.0429v.0017"/><path id="aa" class="ac" d="M18.0397,15.4953h11.9206v23.1287h-11.9206V15.4953"/><path id="ab" class="ac" d="M20.5476,28.0193h6.9049v8.1846h-6.9049v-8.1846"/></svg>
